assets/svgs/misc-grey/MiscGrey21.svg

<svg width="39" height="37" viewBox="0 0 39 37" fill="none" xmlns="http://www.w3.org/2000/svg">
<path fill-rule="evenodd" clip-rule="evenodd" d="M13.9301 14.722C13.9301 13.895 13.2601 13.227 12.4301 13.227L5.78006 13.248C7.70006 7.31799 13.3101 3.19099 19.5801 3.17099C19.5901 3.17099 19.6101 3.17099 19.6301 3.17099C26.6301 3.17099 32.6501 8.15399 33.9401 15.036C34.0701 15.757 34.7001 16.261 35.4101 16.261C35.5001 16.261 35.6001 16.252 35.6901 16.235C36.5001 16.082 37.0401 15.299 36.8901 14.484C35.3301 6.18199 28.0801 0.17099 19.6301 0.17099C19.6101 0.17099 19.5901 0.17099 19.5701 0.17099C12.6301 0.19299 6.35006 4.39899 3.58006 10.629L3.56006 5.00499C3.56006 4.17899 2.88006 3.50999 2.06006 3.50999C2.06006 3.50999 2.06006 3.50999 2.05006 3.50999C1.23006 3.51299 0.560059 4.18699 0.560059 5.01499L0.590059 14.765C0.590059 15.163 0.750059 15.544 1.03006 15.824C1.31006 16.104 1.69006 16.26 2.09006 16.26L12.4401 16.227C13.2701 16.224 13.9401 15.55 13.9301 14.722Z" fill="#1A1919"/>
<path fill-rule="evenodd" clip-rule="evenodd" d="M38.6301 21.466C38.6201 20.64 37.9501 19.971 37.1301 19.971H37.1201L26.7801 20.004C25.9501 20.007 25.2801 20.681 25.2801 21.509C25.2901 22.336 25.9601 23.004 26.7801 23.004C26.7901 23.004 26.7901 23.004 26.7901 23.004L33.5401 22.983C31.7001 29.062 26.0801 33.275 19.6701 33.296C19.6601 33.296 19.6501 33.296 19.6301 33.296C13.3301 33.296 6.95012 28.339 5.68012 22.454C5.50012 21.643 4.70012 21.131 3.90012 21.303C3.09012 21.478 2.57012 22.276 2.75012 23.085C4.32012 30.379 11.8901 36.296 19.6301 36.296C19.6501 36.296 19.6701 36.296 19.6801 36.296C26.6601 36.273 32.8601 32.141 35.6401 25.951L35.6601 31.226C35.6601 32.052 36.3301 32.721 37.1601 32.721C37.9901 32.718 38.6601 32.044 38.6601 31.216L38.6301 21.466Z" fill="#1A1919"/>
</svg>

<svg xmlns="http://www.w3.org/2000/svg" viewBox="0 0 39 37"><path fill-rule="evenodd" d="M13.93 14.722c0-.827-.67-1.495-1.5-1.495l-6.65.021c1.92-5.93 7.53-10.057 13.8-10.077h.05c7 0 13.02 4.983 14.31 11.865a1.493 1.493 0 001.75 1.199 1.507 1.507 0 001.2-1.751C35.33 6.182 28.08.171 19.63.171h-.06C12.63.193 6.35 4.399 3.58 10.629l-.02-5.624c0-.826-.68-1.495-1.5-1.495h-.01c-.82.003-1.49.677-1.49 1.505l.03 9.75a1.5 1.5 0 001.5 1.495l10.35-.033a1.49 1.49 0 001.49-1.505zM38.63 21.466a1.51 1.51 0 00-1.5-1.495h-.01l-10.34.033c-.83.003-1.5.677-1.5 1.505.01.827.68 1.495 1.5 1.495h.01l6.75-.021c-1.84 6.079-7.46 10.292-13.87 10.313h-.04c-6.3 0-12.68-4.957-13.95-10.842a1.507 1.507 0 00-1.78-1.151c-.81.175-1.33.973-1.15 1.782 1.57 7.294 9.14 13.211 16.88 13.211h.05a17.563 17.563 0 0015.96-10.345l.02 5.275c0 .826.67 1.495 1.5 1.495.83-.003 1.5-.677 1.5-1.505l-.03-9.75z" clip-rule="evenodd"/></svg>
